build/category/PalleteSolid.svg

<svg xmlns="http://www.w3.org/2000/svg" fill="none" viewBox="0 0 24 24" focusable="false"><path d="M0 0H24V24H0z"/><path fill="#74767B" fill-rule="evenodd" d="M2.96875 11.9998C2.96875 7.0121 7.0121 2.96875 11.9998 2.96875C16.9436 2.96875 21.0309 6.55655 21.0309 11.5867C21.0309 13.196 19.7263 14.5005 18.1171 14.5005L16.9086 14.5005C15.9092 14.5005 15.0991 15.3107 15.0991 16.3101L15.0991 17.9317C15.0991 19.6433 13.7115 21.0309 11.9998 21.0309C7.0121 21.0309 2.96875 16.9876 2.96875 11.9998ZM7.29587 12.9998C6.74359 12.9998 6.29587 12.552 6.29587 11.9998C6.29587 11.4475 6.74359 10.9998 7.29587 10.9998C7.84816 10.9998 8.29587 11.4475 8.29587 11.9998C8.29587 12.552 7.84816 12.9998 7.29587 12.9998ZM8.33051 7.8999C8.33051 8.45219 8.77823 8.8999 9.33051 8.8999C9.8828 8.8999 10.3305 8.45219 10.3305 7.8999C10.3305 7.34762 9.8828 6.8999 9.33051 6.8999C8.77823 6.8999 8.33051 7.34762 8.33051 7.8999ZM9.58933 14.9088C10.1228 15.0517 10.4394 15.6 10.2964 16.1335C10.1535 16.667 9.60516 16.9835 9.0717 16.8406C8.53823 16.6977 8.22165 16.1493 8.36459 15.6159C8.50753 15.0824 9.05587 14.7658 9.58933 14.9088ZM15.2842 11.6981C14.0213 11.6981 12.9975 10.6743 12.9975 9.41144C12.9975 8.14854 14.0213 7.12476 15.2842 7.12476C16.5471 7.12476 17.5709 8.14854 17.5709 9.41144C17.5709 10.6743 16.5471 11.6981 15.2842 11.6981Z"/></svg>

<svg xmlns="http://www.w3.org/2000/svg" fill="none" viewBox="0 0 24 24" focusable="false"><path fill="#74767B" fill-rule="evenodd" d="M2.96 11.99c0-4.98 4.05-9.03 9.03-9.03 4.95 0 9.04 3.59 9.04 8.62 0 1.61-1.31 2.92-2.92 2.92H16.9c-1 0-1.81.81-1.81 1.81v1.62c0 1.71-1.38 3.1-3.1 3.1-4.98 0-9.03-4.05-9.03-9.04m4.33 1c-.55 0-1-.44-1-1 0-.55.45-1 1-1s1 .45 1 1c0 .56-.45 1-1 1m1.04-5.1c0 .56.44 1 1 1 .55 0 1-.44 1-1 0-.55-.45-1-1-1-.56 0-1 .45-1 1m1.25 7.01a1.002 1.002 0 0 1-.51 1.94 1.002 1.002 0 0 1 .51-1.94m5.7-3.21c-1.26 0-2.29-1.02-2.29-2.28a2.29 2.29 0 1 1 4.58 0c0 1.26-1.03 2.28-2.29 2.28"/></svg>
